X:1
T:Tell Me A Story
T:Tell me a story
T:Terry Gilkyson
C:Terry Gilkyson
Z:All Rights Reserved
L:1/8
M:6/8
K:C
V:1 treble nm="Electric Piano"
%%MIDI program 4
V:1
"C" E3 G2 F | E3"Am" C3 |"Dm" D2 D"G7" E2 D |"C" C6 |"Dm7" F2 F"G7" G2 F |"C" E3"Am7" G2 G | %6
w: Oh wor ry|wor- ry|wear- y ends my|day|comes the time to|go home with-|
w: Came home so|late one|eve- ning last Ju-|ly|played a lit- tle|po- ker the|
w: Once upon a|time I|remem ber long a-|go|dont go back in|hos- try your|
"D7" A2 G A2 B |"G7" G6 |"Dm7" c3 A2 c |"Cmaj7" B7/2 G2 G/ |"Dm" A2 A"G7" F2 A |"C" G6 | %12
w: out my raise in|pay|home by the|fire where a|man can just re-|lax|
w: time has passed me|by|shoes in my|hand and my|dar- lin wife in|bed|
w: mem- rys kind- a|slow|stopyour nois y|talkin till I|fin- ish with my|tale|
"F" A2 A A3 |"C" G2 E C3 |"F" A2 G A2 B |"C" c2 G G2 G |"F" c3 A3 | G3"A7" A3 |"D7" EEE"G7" D2 D | %19
w: Slip- pers there|by the chair|not a wor- ry|not a care a|long come|jun- ior|swing- ing his lit- tle|
w: up the stairs|sayin a prayer|then a voice comes|thru the air Hi|ya there|dad- dy|re mem ber what you|
w: Once up- on|apon a what?|on your back you'll|get a swat *|tell me'bout|thefish youcaught|thats big- ger than a|
"C" C3- C z2 |"C" G3 G2 A | G3"C7" E3 |"F" c3 c2 A |"C" G3 E3 | C3 C2 A |"Em" G3"Am" E2 E | %26
w: axe *|Tell me a|sto- ry|tell me a|sto- ry-|tell me a|st- ry re-|
w: said? *|||||||
w: whale *|||||||
"D7" E2 E D2 C |"G7" D3- D z2 |"C" GGG G2 A | G2 E"C7" C3 |"F" ccc c2 d | c2 A F3 |"C" G3"F" c2 A | %33
w: mem- ber what you|said *|tell me a- bout the|birds and bees|how do you make a|chick- en sneeze|tell me a|
w: ||tell * me how your|eye got black|because * the door- way|hit you back||
w: |||||||
"C" G3"A7" A3 |1"D7" E2"^2" E"G7" D2 D ||1"C" C3"^2" ^^C3 :| e2 z4 |3 e2 z4 || e2 z2 C z | %39
w: sto- ry|then I'll go to|bed *|(spank)|(spank)|(spank) my|
w: ||||||
w: ||||||
"D7" E3"G7" D3 |"C" C3- C z C |"D7" E2 F"G7" D2 D |"C" C3 z z2 |] %43
w: tales all|read (father) and|now get up to|bed.|
w: ||||
w: ||||

